public/icons/materialize.svg

<svg xmlns="http://www.w3.org/2000/svg" xmlns:xlink="http://www.w3.org/1999/xlink" version="1.1" id="Layer_1" x="0px"
  y="0px" width="114px" height="56.7px" viewBox="0 0 114 56.7" enable-background="new 0 0 114 56.7"
  xml:space="preserve">
  <g enable-background="new    ">
    <g enable-background="new    ">
      <defs>
        <ellipse id="SVGID_1_" enable-background="new    " cx="538.6" cy="28.3" rx="0" ry="28.2" />
      </defs>
      <clipPath id="SVGID_2_">
        <use xlink:href="#SVGID_1_" overflow="visible" />
      </clipPath>
    </g>
    <g enable-background="new    ">
      <defs>
        <ellipse id="SVGID_3_" enable-background="new    " cx="-374.1" cy="28.3" rx="0" ry="28.2" />
      </defs>
      <clipPath id="SVGID_4_">
        <use xlink:href="#SVGID_3_" overflow="visible" />
      </clipPath>
      <g clip-path="url(#SVGID_4_)">
        <g>
          <g>
            <g>
              <polyline fill="none" points="-374.1,-41.8 -374.1,-19.4 -374.1,3 -374.1,-19.4 -374.1,-41.8       " />
              <polyline fill="none" points="-374.1,5.9 -374.1,28.3 -374.1,50.7 -374.1,28.3 -374.1,5.9       " />
              <polyline fill="none" points="-374.1,53.5 -374.1,75.9 -374.1,98.3 -374.1,75.9 -374.1,53.5       " />
            </g>
          </g>
        </g>
      </g>
    </g>
    <g enable-background="new    ">
      <defs>
        <path id="SVGID_5_" enable-background="new    "
          d="M-374.1,0.1h912.6c0,0,0,12.6,0,28.2c0,15.6,0,28.2,0,28.2h-912.6     c0,0,0-12.6,0-28.2C-374.1,12.7-374.1,0.1-374.1,0.1z" />
      </defs>
      <clipPath id="SVGID_6_">
        <use xlink:href="#SVGID_5_" overflow="visible" />
      </clipPath>
    </g>
    <g enable-background="new    ">
      <defs>
        <path id="SVGID_7_" enable-background="new    "
          d="M-374.1,56.4c0,0,0-12.6,0-28.2c0-15.6,0-28.2,0-28.2h912.6     c0,0,0,12.6,0,28.2c0,15.6,0,28.2,0,28.2C264.8,56.4-100.3,56.4-374.1,56.4z" />
      </defs>
      <clipPath id="SVGID_8_">
        <use xlink:href="#SVGID_7_" overflow="visible" />
      </clipPath>
      <g clip-path="url(#SVGID_8_)">
        <g id="XMLID_1_">
          <g>
            <path fill="#EB7077"
              d="M95,30.3h16.3c-5.7,1.9-7.5,5.7-8.5,16.5c-0.7,7.7-4.2,9.7-4.2,9.7c-2.6,0-5.2-11.1-7.5-22.9       C92,31.6,93.2,30.6,95,30.3z" />
            <path fill="#EB7077"
              d="M98.5,56.4H82.2c2.9,0,4.9-5.5,6.1-12.5c0.8-4.7,1.6-8.1,2.7-10.4C93.3,45.3,95.9,56.4,98.5,56.4z" />
            <path fill="#F6A2AD"
              d="M91,33.5c-1.2,2.2-2,5.7-2.7,10.4c-1.2,7-3.2,12.5-6.1,12.5c-3.1-0.7-5.6-12.5-8.9-30.5       c-0.1-0.6-0.2-1.1-0.3-1.7c2.5-13,5.1-24.2,7.7-24.2h0.9c3.1,0.7,5.6,12.5,8.9,30.5C90.7,31.6,90.8,32.5,91,33.5z" />
            <path fill="#EB7077" d="M65.3,0.1h15.4c-2.6,0-5.3,11.2-7.7,24.2C70.7,12.1,68,0.1,65.3,0.1z" />
            <path fill="#EB7077"
              d="M73,24.3c-0.2,1.3-0.5,2.6-0.7,4c-3.7,20.2-5.9,27.6-8.5,28.2c-2.9,0-5.7-13.1-8-25.9       c0-0.2-0.1-0.4-0.1-0.6c0.1-0.6,0.2-1.1,0.3-1.7C59.7,8,61.9,0.7,64.4,0.1h0.9C68,0.1,70.7,12.1,73,24.3z" />
            <path fill="#EB7077"
              d="M63.8,56.4H47.5c2.8,0,5.6-12.5,8.1-26.5c0,0.2,0.1,0.4,0.1,0.6C58.1,43.4,61,56.4,63.8,56.4z" />
            <path fill="#F6A2AD"
              d="M55.7,30c-2.6,14-5.4,26.5-8.1,26.5C44.4,55.7,42,43.9,38.6,26c-0.1-0.6-0.2-1.1-0.3-1.7       c2.5-13,5.1-24.2,7.7-24.2h0.9C50,0.8,52.4,12.4,55.7,30z" />
            <path fill="#EB7077" d="M30.6,0.1H46c-2.6,0-5.2,11.2-7.7,24.2C36,12.1,33.3,0.1,30.6,0.1z" />
            <path fill="#EB7077"
              d="M38.3,24.3c-0.2,1.3-0.5,2.6-0.7,4c-3.7,20.2-5.9,27.6-8.5,28.2c-2.9,0-1.8-0.5-3.6-8.6       c-1.8-8.1-3.2-12.9-5.1-15.4c0.3-1.4,0.5-2.8,0.8-4.2C25,8,27.2,0.7,29.7,0.1h0.9C33.3,0.1,36,12.1,38.3,24.3z" />
            <path fill="#EB7077"
              d="M29.1,56.4H12.8c2.6,0,5.2-11.1,7.7-24c1.8,2.5,3.2,7.3,5.1,15.4C27.4,55.9,26.2,56.4,29.1,56.4z" />
            <path fill="#F6A2AD"
              d="M20.5,32.4c-2.5,12.9-5.1,24-7.7,24c-0.3-0.4-2.1,0-3.8-10c-1.5-9.2-4.2-15-8.6-16.1h16.3       C18.3,30.4,19.4,31,20.5,32.4z" />
          </g>
          <g>
          </g>
        </g>
      </g>
    </g>
  </g>
  <path fill="none" d="M194.8,54.9" />
  <g enable-background="new    ">
    <g enable-background="new    ">
      <defs>
        <ellipse id="SVGID_9_" enable-background="new    " cx="538.6" cy="28.2" rx="0" ry="28.2" />
      </defs>
      <clipPath id="SVGID_10_">
        <use xlink:href="#SVGID_9_" overflow="visible" />
      </clipPath>
    </g>
    <g enable-background="new    ">
      <defs>
        <ellipse id="SVGID_11_" enable-background="new    " cx="-374.1" cy="28.2" rx="0" ry="28.2" />
      </defs>
      <clipPath id="SVGID_12_">
        <use xlink:href="#SVGID_11_" overflow="visible" />
      </clipPath>
      <g clip-path="url(#SVGID_12_)">
        <g>
          <g>
            <g>
              <polyline fill="none" points="-374.1,-41.9 -374.1,-19.5 -374.1,2.9 -374.1,-19.5 -374.1,-41.9       " />
              <polyline fill="none" points="-374.1,5.8 -374.1,28.2 -374.1,50.6 -374.1,28.2 -374.1,5.8       " />
              <polyline fill="none" points="-374.1,53.4 -374.1,75.8 -374.1,98.2 -374.1,75.8 -374.1,53.4       " />
            </g>
          </g>
        </g>
      </g>
    </g>
    <g enable-background="new    ">
      <defs>
        <path id="SVGID_13_" enable-background="new    "
          d="M-374.1,0h912.6c0,0,0,12.6,0,28.2s0,28.2,0,28.2h-912.6c0,0,0-12.6,0-28.2     S-374.1,0-374.1,0z" />
      </defs>
      <clipPath id="SVGID_14_">
        <use xlink:href="#SVGID_13_" overflow="visible" />
      </clipPath>
    </g>
    <g enable-background="new    ">
      <defs>
        <path id="SVGID_15_" enable-background="new    "
          d="M-374.1,56.3c0,0,0-12.6,0-28.2s0-28.2,0-28.2h912.6c0,0,0,12.6,0,28.2     s0,28.2,0,28.2C264.8,56.3-100.3,56.3-374.1,56.3z" />
      </defs>
      <clipPath id="SVGID_16_">
        <use xlink:href="#SVGID_15_" overflow="visible" />
      </clipPath>
      <g clip-path="url(#SVGID_16_)">
        <g id="XMLID_2_">
          <g>
            <path fill="#EB7077"
              d="M95,30.2h16.3c-5.7,1.9-7.5,5.7-8.5,16.5c-0.7,7.7-4.2,9.7-4.2,9.7c-2.6,0-5.2-11.1-7.5-22.9       C92,31.5,93.2,30.5,95,30.2z" />
            <path fill="#EB7077"
              d="M98.5,56.3H82.2c2.9,0,4.9-5.5,6.1-12.5c0.8-4.7,1.6-8.1,2.7-10.4C93.3,45.2,95.9,56.3,98.5,56.3z" />
            <path fill="#F6A2AD"
              d="M91,33.4c-1.2,2.2-2,5.7-2.7,10.4c-1.2,7-3.2,12.5-6.1,12.5c-3.1-0.7-5.6-12.5-8.9-30.5       c-0.1-0.6-0.2-1.1-0.3-1.7C75.5,11.2,78.1,0,80.7,0h0.9c3.1,0.7,5.6,12.5,8.9,30.5C90.7,31.4,90.8,32.4,91,33.4z" />
            <path fill="#EB7077" d="M65.3,0h15.4c-2.6,0-5.3,11.2-7.7,24.2C70.7,12,68,0,65.3,0z" />
            <path fill="#EB7077"
              d="M73,24.2c-0.2,1.3-0.5,2.6-0.7,4c-3.7,20.2-5.9,27.6-8.5,28.2c-2.9,0-5.7-13.1-8-25.9       c0-0.2-0.1-0.4-0.1-0.6c0.1-0.6,0.2-1.1,0.3-1.7C59.7,7.9,61.9,0.6,64.4,0h0.9C68,0,70.7,12,73,24.2z" />
            <path fill="#EB7077"
              d="M63.8,56.3H47.5c2.8,0,5.6-12.5,8.1-26.5c0,0.2,0.1,0.4,0.1,0.6C58.1,43.3,61,56.3,63.8,56.3z" />
            <path fill="#F6A2AD"
              d="M55.7,29.9c-2.6,14-5.4,26.5-8.1,26.5c-3.1-0.7-5.6-12.5-8.9-30.5c-0.1-0.6-0.2-1.1-0.3-1.7       C40.8,11.2,43.4,0,46,0h0.9C50,0.7,52.4,12.2,55.7,29.9z" />
            <path fill="#EB7077" d="M30.6,0H46c-2.6,0-5.2,11.2-7.7,24.2C36,12,33.3,0,30.6,0z" />
            <path fill="#EB7077"
              d="M38.3,24.2c-0.2,1.3-0.5,2.6-0.7,4c-3.7,20.2-5.9,27.6-8.5,28.2c-2.9,0-1.8-0.5-3.6-8.6       c-1.8-8.1-3.2-12.9-5.1-15.4c0.3-1.4,0.5-2.8,0.8-4.2C25,7.9,27.2,0.6,29.7,0h0.9C33.3,0,36,12,38.3,24.2z" />
            <path fill="#EB7077"
              d="M29.1,56.3H12.8c2.6,0,5.2-11.1,7.7-24c1.8,2.5,3.2,7.3,5.1,15.4C27.4,55.8,26.2,56.3,29.1,56.3z" />
            <path fill="#F6A2AD"
              d="M20.5,32.3c-2.5,12.9-5.1,24-7.7,24c-0.3-0.4-2.1,0-3.8-10c-1.5-9.2-4.2-15-8.6-16.1h16.3       C18.3,30.2,19.4,30.9,20.5,32.3z" />
          </g>
          <g>
          </g>
        </g>
      </g>
    </g>
  </g>
</svg>

<?xml version="1.0" encoding="UTF-8" standalone="no"?>
<svg
   width="48"
   height="48"
   viewBox="0 0 48 48"
   inkscape:version="1.1.2 (b8e25be833, 2022-02-05)"
   sodipodi:docname="materialize.svg"
   version="1.1"
   id="svg1067"
   xmlns:inkscape="http://www.inkscape.org/namespaces/inkscape"
   xmlns:sodipodi="http://sodipodi.sourceforge.net/DTD/sodipodi-0.dtd"
   xmlns:xlink="http://www.w3.org/1999/xlink"
   xmlns="http://www.w3.org/2000/svg"
   xmlns:svg="http://www.w3.org/2000/svg"><defs
   id="defs161" />
<sodipodi:namedview
   id="namedview159"
   pagecolor="#ffffff"
   bordercolor="#666666"
   borderopacity="1.0"
   inkscape:pageshadow="2"
   inkscape:pageopacity="0.0"
   inkscape:pagecheckerboard="0"
   showgrid="false"
   inkscape:zoom="11.526316"
   inkscape:cx="26.678082"
   inkscape:cy="18.869863"
   inkscape:window-width="2400"
   inkscape:window-height="1271"
   inkscape:window-x="-9"
   inkscape:window-y="-1359"
   inkscape:window-maximized="1" />

  <g
   enable-background="new    "
   id="g77"
   transform="matrix(0.43282236,0,0,0.42553191,-0.17312894,12)">
    <g
   enable-background="new    "
   id="g8">
      <defs
   id="defs3">
        <ellipse
   id="SVGID_1_"
   enable-background="new    "
   cx="538.59998"
   cy="28.299999"
   rx="0"
   ry="28.200001" />

      </defs>

      <clipPath
   id="SVGID_2_">
        <use
   xlink:href="#SVGID_1_"
   overflow="visible"
   id="use5"
   x="0"
   y="0"
   width="100%"
   height="100%" />

      </clipPath>

    </g>

    <g
   enable-background="new    "
   id="g30">
      <defs
   id="defs11">
        <ellipse
   id="SVGID_3_"
   enable-background="new    "
   cx="-374.10001"
   cy="28.299999"
   rx="0"
   ry="28.200001" />

      </defs>

      <clipPath
   id="SVGID_4_">
        <use
   xlink:href="#SVGID_3_"
   overflow="visible"
   id="use13"
   x="0"
   y="0"
   width="100%"
   height="100%" />

      </clipPath>

      <g
   clip-path="url(#SVGID_4_)"
   id="g28">
        <g
   id="g26">
          <g
   id="g24">
            <g
   id="g22">
              <polyline
   fill="none"
   points="-374.1,-41.8 -374.1,-19.4 -374.1,3 -374.1,-19.4 -374.1,-41.8       "
   id="polyline16" />

              <polyline
   fill="none"
   points="-374.1,5.9 -374.1,28.3 -374.1,50.7 -374.1,28.3 -374.1,5.9       "
   id="polyline18" />

              <polyline
   fill="none"
   points="-374.1,53.5 -374.1,75.9 -374.1,98.3 -374.1,75.9 -374.1,53.5       "
   id="polyline20" />

            </g>

          </g>

        </g>

      </g>

    </g>

    <g
   enable-background="new    "
   id="g38">
      <defs
   id="defs33">
        <path
   id="SVGID_5_"
   enable-background="new    "
   d="m -374.1,0.1 h 912.6 c 0,0 0,12.6 0,28.2 0,15.6 0,28.2 0,28.2 h -912.6 c 0,0 0,-12.6 0,-28.2 0,-15.6 0,-28.2 0,-28.2 z" />

      </defs>

      <clipPath
   id="SVGID_6_">
        <use
   xlink:href="#SVGID_5_"
   overflow="visible"
   id="use35"
   x="0"
   y="0"
   width="100%"
   height="100%" />

      </clipPath>

    </g>

    <g
   enable-background="new    "
   id="g75">
      <defs
   id="defs41">
        <path
   id="SVGID_7_"
   enable-background="new    "
   d="m -374.1,56.4 c 0,0 0,-12.6 0,-28.2 0,-15.6 0,-28.2 0,-28.2 h 912.6 c 0,0 0,12.6 0,28.2 0,15.6 0,28.2 0,28.2 -273.7,0 -638.8,0 -912.6,0 z" />

      </defs>

      <clipPath
   id="SVGID_8_">
        <use
   xlink:href="#SVGID_7_"
   overflow="visible"
   id="use43"
   x="0"
   y="0"
   width="100%"
   height="100%" />

      </clipPath>

      <g
   clip-path="url(#SVGID_8_)"
   id="g73">
        <g
   id="XMLID_1_">
          <g
   id="g68">
            <path
   fill="#eb7077"
   d="m 95,30.3 h 16.3 c -5.7,1.9 -7.5,5.7 -8.5,16.5 -0.7,7.7 -4.2,9.7 -4.2,9.7 -2.6,0 -5.2,-11.1 -7.5,-22.9 0.9,-2 2.1,-3 3.9,-3.3 z"
   id="path46" />

            <path
   fill="#eb7077"
   d="M 98.5,56.4 H 82.2 c 2.9,0 4.9,-5.5 6.1,-12.5 0.8,-4.7 1.6,-8.1 2.7,-10.4 2.3,11.8 4.9,22.9 7.5,22.9 z"
   id="path48" />

            <path
   fill="#f6a2ad"
   d="m 91,33.5 c -1.2,2.2 -2,5.7 -2.7,10.4 -1.2,7 -3.2,12.5 -6.1,12.5 C 79.1,55.7 76.6,43.9 73.3,25.9 73.2,25.3 73.1,24.8 73,24.2 75.5,11.2 78.1,0 80.7,0 h 0.9 c 3.1,0.7 5.6,12.5 8.9,30.5 0.2,1.1 0.3,2 0.5,3 z"
   id="path50" />

            <path
   fill="#eb7077"
   d="M 65.3,0.1 H 80.7 C 78.1,0.1 75.4,11.3 73,24.3 70.7,12.1 68,0.1 65.3,0.1 Z"
   id="path52" />

            <path
   fill="#eb7077"
   d="m 73,24.3 c -0.2,1.3 -0.5,2.6 -0.7,4 -3.7,20.2 -5.9,27.6 -8.5,28.2 -2.9,0 -5.7,-13.1 -8,-25.9 0,-0.2 -0.1,-0.4 -0.1,-0.6 0.1,-0.6 0.2,-1.1 0.3,-1.7 C 59.7,8 61.9,0.7 64.4,0.1 h 0.9 c 2.7,0 5.4,12 7.7,24.2 z"
   id="path54" />

            <path
   fill="#eb7077"
   d="M 63.8,56.4 H 47.5 c 2.8,0 5.6,-12.5 8.1,-26.5 0,0.2 0.1,0.4 0.1,0.6 2.4,12.9 5.3,25.9 8.1,25.9 z"
   id="path56" />

            <path
   fill="#f6a2ad"
   d="M 55.7,30 C 53.1,44 50.3,56.5 47.6,56.5 44.4,55.7 42,43.9 38.6,26 38.5,25.4 38.4,24.9 38.3,24.3 40.8,11.3 43.4,0.1 46,0.1 h 0.9 C 50,0.8 52.4,12.4 55.7,30 Z"
   id="path58" />

            <path
   fill="#eb7077"
   d="M 30.6,0.1 H 46 C 43.4,0.1 40.8,11.3 38.3,24.3 36,12.1 33.3,0.1 30.6,0.1 Z"
   id="path60" />

            <path
   fill="#eb7077"
   d="m 38.3,24.3 c -0.2,1.3 -0.5,2.6 -0.7,4 -3.7,20.2 -5.9,27.6 -8.5,28.2 -2.9,0 -1.8,-0.5 -3.6,-8.6 C 23.7,39.8 22.3,35 20.4,32.5 20.7,31.1 20.9,29.7 21.2,28.3 25,8 27.2,0.7 29.7,0.1 h 0.9 c 2.7,0 5.4,12 7.7,24.2 z"
   id="path62" />

            <path
   fill="#eb7077"
   d="M 29.1,56.4 H 12.8 c 2.6,0 5.2,-11.1 7.7,-24 1.8,2.5 3.2,7.3 5.1,15.4 1.8,8.1 0.6,8.6 3.5,8.6 z"
   id="path64" />

            <path
   fill="#f6a2ad"
   d="M 20.5,32.4 C 18,45.3 15.4,56.4 12.8,56.4 12.5,56 10.7,56.4 9,46.4 7.5,37.2 4.8,31.4 0.4,30.3 h 16.3 c 1.6,0.1 2.7,0.7 3.8,2.1 z"
   id="path66" />

          </g>

          <g
   id="g70">
          </g>

        </g>

      </g>

    </g>

  </g>

  <path
   fill="none"
   d="M194.8,54.9"
   id="path79" />

  <g
   enable-background="new    "
   id="g156"
   transform="matrix(0.43282236,0,0,0.42553191,-0.17312894,12)">
    <g
   enable-background="new    "
   id="g87">
      <defs
   id="defs82">
        <ellipse
   id="SVGID_9_"
   enable-background="new    "
   cx="538.59998"
   cy="28.200001"
   rx="0"
   ry="28.200001" />

      </defs>

      <clipPath
   id="SVGID_10_">
        <use
   xlink:href="#SVGID_9_"
   overflow="visible"
   id="use84"
   x="0"
   y="0"
   width="100%"
   height="100%" />

      </clipPath>

    </g>

    <g
   enable-background="new    "
   id="g109">
      <defs
   id="defs90">
        <ellipse
   id="SVGID_11_"
   enable-background="new    "
   cx="-374.10001"
   cy="28.200001"
   rx="0"
   ry="28.200001" />

      </defs>

      <clipPath
   id="SVGID_12_">
        <use
   xlink:href="#SVGID_11_"
   overflow="visible"
   id="use92"
   x="0"
   y="0"
   width="100%"
   height="100%" />

      </clipPath>

      <g
   clip-path="url(#SVGID_12_)"
   id="g107">
        <g
   id="g105">
          <g
   id="g103">
            <g
   id="g101">
              <polyline
   fill="none"
   points="-374.1,-41.9 -374.1,-19.5 -374.1,2.9 -374.1,-19.5 -374.1,-41.9       "
   id="polyline95" />

              <polyline
   fill="none"
   points="-374.1,5.8 -374.1,28.2 -374.1,50.6 -374.1,28.2 -374.1,5.8       "
   id="polyline97" />

              <polyline
   fill="none"
   points="-374.1,53.4 -374.1,75.8 -374.1,98.2 -374.1,75.8 -374.1,53.4       "
   id="polyline99" />

            </g>

          </g>

        </g>

      </g>

    </g>

    <g
   enable-background="new    "
   id="g117">
      <defs
   id="defs112">
        <path
   id="SVGID_13_"
   enable-background="new    "
   d="m -374.1,0 h 912.6 c 0,0 0,12.6 0,28.2 0,15.6 0,28.2 0,28.2 h -912.6 c 0,0 0,-12.6 0,-28.2 0,-15.6 0,-28.2 0,-28.2 z" />

      </defs>

      <clipPath
   id="SVGID_14_">
        <use
   xlink:href="#SVGID_13_"
   overflow="visible"
   id="use114"
   x="0"
   y="0"
   width="100%"
   height="100%" />

      </clipPath>

    </g>

    <g
   enable-background="new    "
   id="g154">
      <defs
   id="defs120">
        <path
   id="SVGID_15_"
   enable-background="new    "
   d="m -374.1,56.3 c 0,0 0,-12.6 0,-28.2 0,-15.6 0,-28.2 0,-28.2 h 912.6 c 0,0 0,12.6 0,28.2 0,15.6 0,28.2 0,28.2 -273.7,0 -638.8,0 -912.6,0 z" />

      </defs>

      <clipPath
   id="SVGID_16_">
        <use
   xlink:href="#SVGID_15_"
   overflow="visible"
   id="use122"
   x="0"
   y="0"
   width="100%"
   height="100%" />

      </clipPath>

      <g
   clip-path="url(#SVGID_16_)"
   id="g152">
        <g
   id="XMLID_2_">
          <g
   id="g147">
            <path
   fill="#eb7077"
   d="m 95,30.2 h 16.3 c -5.7,1.9 -7.5,5.7 -8.5,16.5 -0.7,7.7 -4.2,9.7 -4.2,9.7 -2.6,0 -5.2,-11.1 -7.5,-22.9 0.9,-2 2.1,-3 3.9,-3.3 z"
   id="path125" />

            <path
   fill="#eb7077"
   d="M 98.5,56.3 H 82.2 c 2.9,0 4.9,-5.5 6.1,-12.5 0.8,-4.7 1.6,-8.1 2.7,-10.4 2.3,11.8 4.9,22.9 7.5,22.9 z"
   id="path127" />

            <path
   fill="#f6a2ad"
   d="m 91,33.4 c -1.2,2.2 -2,5.7 -2.7,10.4 -1.2,7 -3.2,12.5 -6.1,12.5 C 79.1,55.6 76.6,43.8 73.3,25.8 73.2,25.2 73.1,24.7 73,24.1 75.5,11.2 78.1,0 80.7,0 h 0.9 c 3.1,0.7 5.6,12.5 8.9,30.5 0.2,0.9 0.3,1.9 0.5,2.9 z"
   id="path129" />

            <path
   fill="#eb7077"
   d="M 65.3,0 H 80.7 C 78.1,0 75.4,11.2 73,24.2 70.7,12 68,0 65.3,0 Z"
   id="path131" />

            <path
   fill="#eb7077"
   d="m 73,24.2 c -0.2,1.3 -0.5,2.6 -0.7,4 -3.7,20.2 -5.9,27.6 -8.5,28.2 -2.9,0 -5.7,-13.1 -8,-25.9 0,-0.2 -0.1,-0.4 -0.1,-0.6 0.1,-0.6 0.2,-1.1 0.3,-1.7 C 59.7,7.9 61.9,0.6 64.4,0 h 0.9 C 68,0 70.7,12 73,24.2 Z"
   id="path133" />

            <path
   fill="#eb7077"
   d="M 63.8,56.3 H 47.5 c 2.8,0 5.6,-12.5 8.1,-26.5 0,0.2 0.1,0.4 0.1,0.6 2.4,12.9 5.3,25.9 8.1,25.9 z"
   id="path135" />

            <path
   fill="#f6a2ad"
   d="M 55.7,29.9 C 53.1,43.9 50.3,56.4 47.6,56.4 44.5,55.7 42,43.9 38.7,25.9 38.6,25.3 38.5,24.8 38.4,24.2 40.8,11.2 43.4,0 46,0 h 0.9 c 3.1,0.7 5.5,12.2 8.8,29.9 z"
   id="path137" />

            <path
   fill="#eb7077"
   d="M 30.6,0 H 46 C 43.4,0 40.8,11.2 38.3,24.2 36,12 33.3,0 30.6,0 Z"
   id="path139" />

            <path
   fill="#eb7077"
   d="m 38.3,24.2 c -0.2,1.3 -0.5,2.6 -0.7,4 -3.7,20.2 -5.9,27.6 -8.5,28.2 -2.9,0 -1.8,-0.5 -3.6,-8.6 C 23.7,39.7 22.3,34.9 20.4,32.4 20.7,31 20.9,29.6 21.2,28.2 25,7.9 27.2,0.6 29.7,0 h 0.9 c 2.7,0 5.4,12 7.7,24.2 z"
   id="path141" />

            <path
   fill="#eb7077"
   d="M 29.1,56.3 H 12.8 c 2.6,0 5.2,-11.1 7.7,-24 1.8,2.5 3.2,7.3 5.1,15.4 1.8,8.1 0.6,8.6 3.5,8.6 z"
   id="path143" />

            <path
   fill="#f6a2ad"
   d="m 20.5,32.3 c -2.5,12.9 -5.1,24 -7.7,24 -0.3,-0.4 -2.1,0 -3.8,-10 C 7.5,37.1 4.8,31.3 0.4,30.2 h 16.3 c 1.6,0 2.7,0.7 3.8,2.1 z"
   id="path145" />

          </g>

          <g
   id="g149">
          </g>

        </g>

      </g>

    </g>

  </g>

</svg>
